X: 3146
Q: "Reel."
M: C
L: 1/8
K: Am
uE2 |\
gedB   GABc  | c2A2 A2 |]
e2 |\
a2(ab) agec | ABcd ecBA |\
g2(ga) gedB | GABc dBAG |\
a2(ab) agec | ABcd e2a2 |\
gedB   GABd | c2A2 A2 |]


